morteavenezia.CUBE
#Created by: Adobe Photoshop Export Color Lookup Plugin
TITLE "morteavenezia.psd"
#LUT size
LUT_3D_SIZE 64
#data domain
DOMAIN_MIN 0.0 0.0 0.0
DOMAIN_MAX 1.0 1.0 1.0
#LUT data points
0.071625 0.070251 0.070129
0.102814 0.075806 0.073364
0.130035 0.080658 0.076172
0.155182 0.085144 0.078796
0.178802 0.089355 0.081238
0.201630 0.093414 0.083588
0.222778 0.097198 0.085785
0.243500 0.100861 0.087921
0.263214 0.104248 0.089966
0.281616 0.106628 0.091858
0.299591 0.108154 0.093719
0.316925 0.109802 0.095520
0.332458 0.111603 0.097137
0.347504 0.112732 0.098694
0.361694 0.113770 0.100159
0.375214 0.114685 0.101532
0.387482 0.115875 0.102814
0.399445 0.116699 0.104065
0.410553 0.117126 0.105194
0.420380 0.118591 0.106232
0.429962 0.120361 0.107208
0.439026 0.121796 0.108154
0.447754 0.123169 0.109039
0.456238 0.124054 0.109924
0.464508 0.125549 0.110779
0.472473 0.126923 0.111603
0.480286 0.128235 0.112427
0.487885 0.129211 0.113190
0.495575 0.130859 0.113983
0.503418 0.132080 0.114807
0.511322 0.133301 0.115631
0.519348 0.134766 0.116455
0.527557 0.135925 0.117310
0.535980 0.137146 0.118164
0.544647 0.138611 0.119080
0.553619 0.140839 0.120300
0.562836 0.143372 0.121735
0.572388 0.145569 0.123077
0.582306 0.148010 0.124542
0.592651 0.150635 0.126038
0.603455 0.153564 0.127655
0.614563 0.156647 0.129272
0.626129 0.159393 0.130859
0.638184 0.162292 0.132538
0.650848 0.165619 0.134338
0.663971 0.168427 0.136078
0.677612 0.172089 0.137970
0.691772 0.175293 0.139862
0.706421 0.178925 0.141846
0.721436 0.182495 0.143860
0.736694 0.185791 0.145844
0.752350 0.189819 0.147919
0.768311 0.193512 0.150055
0.784393 0.197174 0.152100
0.800568 0.200897 0.154175
0.817047 0.204376 0.156311
0.833435 0.208588 0.158508
0.849762 0.212433 0.160614
0.865997 0.216095 0.162689
0.882172 0.220154 0.164825
0.886871 0.221283 0.165436
0.886871 0.221283 0.165436
0.886871 0.221283 0.165436
0.886871 0.221283 0.165436
0.076691 0.085205 0.072815
0.106720 0.091064 0.074982
0.133148 0.097168 0.076721
0.158173 0.102234 0.079102
0.181549 0.106720 0.081512
0.204407 0.110779 0.083862
0.225494 0.114838 0.086060
0.246216 0.118500 0.089203
0.266663 0.121826 0.093048
0.285065 0.125214 0.096008
0.302582 0.128326 0.099121
0.319489 0.131073 0.102661
0.335968 0.133575 0.105804
0.350464 0.136230 0.108276
0.364594 0.138458 0.111115
0.378326 0.140289 0.114441
0.390381 0.142395 0.117096
0.402679 0.143951 0.119995
0.413666 0.144958 0.121338
0.424347 0.143799 0.121796
0.434753 0.142029 0.121948
0.444550 0.140808 0.122223
0.454132 0.139160 0.122406
0.463104 0.138611 0.122833
0.472290 0.136658 0.122833
0.480896 0.135620 0.123138
0.488708 0.136932 0.124115
0.496429 0.139130 0.125366
0.504150 0.140808 0.126526
0.512085 0.143097 0.127716
0.520081 0.145294 0.128967
0.528259 0.146973 0.130157
0.536591 0.149384 0.131470
0.545227 0.151367 0.132721
0.554077 0.153687 0.134094
0.563232 0.155975 0.135406
0.572723 0.158539 0.136841
0.582520 0.160797 0.138245
0.592712 0.163391 0.139740
0.603302 0.166107 0.141296
0.614471 0.169037 0.142914
0.625916 0.171509 0.144470
0.637970 0.174896 0.146210
0.650482 0.178040 0.147980
0.663483 0.180634 0.149658
0.677185 0.184143 0.151550
0.691193 0.187286 0.153412
0.705750 0.190735 0.155396
0.720886 0.194885 0.157471
0.736084 0.197968 0.159393
0.751770 0.201843 0.161499
0.767700 0.205444 0.163544
0.783875 0.209167 0.165710
0.800262 0.213379 0.167816
0.816559 0.216644 0.169922
0.833221 0.220673 0.172089
0.849762 0.224701 0.174225
0.866211 0.228760 0.176392
0.882477 0.232239 0.178436
0.898651 0.235962 0.180573
0.903351 0.237213 0.181152
0.903351 0.237213 0.181152
0.903351 0.237213 0.181152
0.903351 0.237213 0.181152
0.082184 0.104401 0.076447
0.107727 0.107788 0.076752
0.134247 0.113983 0.080048
0.158661 0.120117 0.081726
0.183289 0.125000 0.083344
0.204895 0.129944 0.084900
0.226624 0.134277 0.086365
0.247192 0.138062 0.089722
0.266846 0.141663 0.092743
0.285461 0.144928 0.095673
0.302856 0.148193 0.098755
0.320068 0.150848 0.101959
0.335480 0.153809 0.104523
0.350433 0.156219 0.107605
0.364655 0.158386 0.110718
0.378143 0.160400 0.113586
0.390472 0.162292 0.115997
0.402924 0.163727 0.119751
0.413971 0.165436 0.121948
0.424774 0.166931 0.124756
0.435272 0.168243 0.127350
0.445312 0.169434 0.130188
0.455170 0.170471 0.133209
0.464569 0.171539 0.136261
0.473663 0.172668 0.138824
0.482513 0.173706 0.141113
0.491638 0.174286 0.144440
0.500183 0.173431 0.145538
0.508453 0.173370 0.146027
0.517365 0.170380 0.145691
0.526428 0.167908 0.145508
0.535583 0.166412 0.145660
0.545135 0.163300 0.145355
0.553894 0.165344 0.146637
0.562988 0.167511 0.147949
0.572357 0.169891 0.149353
0.582031 0.172546 0.150757
0.592072 0.174744 0.152191
0.602539 0.177246 0.153687
0.613464 0.180115 0.155273
0.624939 0.183197 0.156921
0.636780 0.185913 0.158600
0.649200 0.189331 0.160339
0.662170 0.192352 0.162079
0.675629 0.195801 0.163940
0.689667 0.198853 0.165863
0.704071 0.202057 0.167755
0.719025 0.205963 0.169769
0.734467 0.209625 0.171844
0.750122 0.213379 0.173859
0.765900 0.216827 0.175934
0.782074 0.220306 0.177979
0.798401 0.224060 0.180145
0.814972 0.228363 0.182343
0.831482 0.232178 0.184479
0.848297 0.235718 0.186615
0.864899 0.239777 0.188782
0.881470 0.243896 0.190948
0.897766 0.247437 0.193054
0.914001 0.251495 0.195160
0.916779 0.252289 0.195587
0.916779 0.252289 0.195587
0.916779 0.252289 0.195587
0.916779 0.252289 0.195587
0.088043 0.123230 0.079987
0.113739 0.127197 0.080322
0.136108 0.130005 0.081818
0.160431 0.135803 0.084900
0.183685 0.141693 0.086487
0.205841 0.146973 0.087982
0.227173 0.151581 0.089600
0.247223 0.156128 0.091858
0.267426 0.160095 0.094208
0.286255 0.163818 0.096558
0.303864 0.167267 0.098450
0.319611 0.170685 0.100739
0.335754 0.173187 0.104126
0.350311 0.175812 0.106628
0.364197 0.178162 0.109100
0.377228 0.180481 0.111511
0.389801 0.182404 0.114685
0.401337 0.184326 0.116791
0.412689 0.186005 0.119324
0.423492 0.187469 0.121948
0.433563 0.189056 0.124451
0.443481 0.190460 0.127045
0.452820 0.191864 0.129211
0.462463 0.192810 0.132172
0.471680 0.193909 0.134766
0.480621 0.194794 0.137390
0.489014 0.195953 0.139771
0.497955 0.196686 0.142548
0.507080 0.197266 0.146149
0.516174 0.198029 0.148804
0.525177 0.199005 0.151886
0.535095 0.199402 0.155579
0.544708 0.200439 0.158264
0.554932 0.201172 0.161835
0.565277 0.202148 0.164917
0.576172 0.203156 0.167877
0.587738 0.200226 0.168732
0.599213 0.198669 0.168945
0.611603 0.194550 0.168488
0.623840 0.194397 0.169189
0.635651 0.197540 0.170868
0.647827 0.199982 0.172485
0.660645 0.203125 0.174286
0.673981 0.206909 0.176147
0.687897 0.209747 0.178009
0.702332 0.213318 0.179901
0.717163 0.216675 0.181915
0.732422 0.220612 0.183929
0.748077 0.224304 0.186005
0.763916 0.227539 0.188019
0.780151 0.231537 0.190216
0.796478 0.235229 0.192291
0.813019 0.238800 0.194397
0.829742 0.243347 0.196655
0.846283 0.246460 0.198700
0.863281 0.251129 0.201019
0.880005 0.254669 0.203125
0.896515 0.258789 0.205292
0.912872 0.262299 0.207367
0.918091 0.263916 0.208282
0.918121 0.264435 0.208466
0.918121 0.264435 0.208466
0.918121 0.264435 0.208466
0.918121 0.264435 0.208466
0.093658 0.141174 0.083344
0.118622 0.145386 0.083496
0.140106 0.148010 0.083954
0.162109 0.151184 0.086487
0.184631 0.156494 0.089569
0.207245 0.162292 0.090973
0.227814 0.167389 0.093018
0.248474 0.172180 0.095062
0.267456 0.176575 0.097504
0.285736 0.180603 0.099335
0.303192 0.184448 0.101318
0.319733 0.187805 0.103577
0.335724 0.190918 0.105377
0.350708 0.193878 0.106812
0.364471 0.196594 0.109039
0.377350 0.199188 0.110931
0.389435 0.201324 0.112976
0.401154 0.203247 0.115814
0.412354 0.204956 0.117920
0.422943 0.206696 0.120422
0.433044 0.208374 0.122345
0.442505 0.209961 0.124176
0.451935 0.211243 0.126556
0.460968 0.212769 0.128967
0.470154 0.213837 0.131378
0.478668 0.215118 0.133331
0.487366 0.216125 0.135681
0.495972 0.217102 0.138458
0.504456 0.218262 0.140411
0.513062 0.219330 0.142883
0.521973 0.220398 0.145355
0.531067 0.221405 0.147766
0.540741 0.222260 0.151093
0.550690 0.223145 0.154327
0.561188 0.223969 0.157898
0.572083 0.224792 0.161438
0.583282 0.225891 0.164673
0.595306 0.226776 0.168884
0.608154 0.227570 0.173309
0.621063 0.228851 0.176910
0.635437 0.229736 0.181641
0.649506 0.231262 0.184998
0.665558 0.232239 0.190369
0.681732 0.231567 0.192902
0.698547 0.228516 0.192841
0.714844 0.227692 0.193573
0.730011 0.230927 0.195557
0.745483 0.234894 0.197571
0.761475 0.238708 0.199768
0.777588 0.242615 0.201843
0.794006 0.246033 0.203979
0.810638 0.250092 0.206116
0.827240 0.253204 0.208160
0.844147 0.257812 0.210480
0.860840 0.261505 0.212616
0.877808 0.265137 0.214783
0.894592 0.269196 0.216919
0.911133 0.273163 0.219086
0.919342 0.275299 0.220337
0.919373 0.276550 0.220795
0.919403 0.276855 0.220917
0.919403 0.276855 0.220917
0.919403 0.276855 0.220917
0.919403 0.276855 0.220917
0.099579 0.158813 0.086670
0.123230 0.163116 0.087036
0.144958 0.167084 0.087372
0.164642 0.168091 0.087555
0.185730 0.172119 0.090698
0.207764 0.176636 0.094208
0.229156 0.182343 0.095825
0.248718 0.187439 0.098175
0.268311 0.192047 0.100555
0.286285 0.196411 0.102203
0.304077 0.200348 0.103973
0.320129 0.204010 0.106293
0.335663 0.207336 0.108307
0.350494 0.210388 0.109894
0.364410 0.213257 0.111084
0.376495 0.216217 0.113556
0.389313 0.218414 0.115234
0.400726 0.220886 0.116852
0.412292 0.222809 0.117645
0.421997 0.225098 0.120392
0.432678 0.226898 0.121521
0.442444 0.228516 0.123566
0.451569 0.230103 0.125366
0.460632 0.231476 0.127441
0.469299 0.233032 0.129120
0.477844 0.234222 0.131012
0.486389 0.235443 0.133514
0.494659 0.236633 0.135315
0.502930 0.237854 0.137482
0.511505 0.239014 0.139343
0.520081 0.240326 0.141296
0.529327 0.241333 0.144470
0.538361 0.242584 0.146271
0.548065 0.243652 0.149323
0.557800 0.244995 0.151703
0.568420 0.246094 0.154816
0.579071 0.247284 0.157532
0.590118 0.248657 0.160431
0.602203 0.249756 0.164062
0.614868 0.251068 0.167633
0.628387 0.252319 0.171448
0.642334 0.253632 0.175568
0.657532 0.254913 0.179810
0.673401 0.256500 0.184387
0.690369 0.257812 0.189728
0.708344 0.259216 0.194916
0.726471 0.260864 0.200073
0.745453 0.262573 0.205048
0.765259 0.264343 0.210571
0.785553 0.265991 0.216675
0.805450 0.265625 0.219116
0.824646 0.264221 0.219757
0.841522 0.267883 0.221893
0.858490 0.272125 0.224121
0.875275 0.275543 0.226257
0.892365 0.280243 0.228546
0.909119 0.283600 0.230591
0.920563 0.286865 0.232239
0.920624 0.287628 0.232697
0.920654 0.288116 0.233063
0.920654 0.288544 0.233154
0.920654 0.288544 0.233154
0.920654 0.288544 0.233154
0.920654 0.288544 0.233154
0.104828 0.176056 0.089905
0.127960 0.180328 0.090179
0.149445 0.183990 0.090515
0.169647 0.186310 0.090790
0.188202 0.187347 0.091156
0.209686 0.191620 0.095001
0.229645 0.195984 0.098663
0.249756 0.201447 0.100983
0.269165 0.206573 0.102722
0.287323 0.211060 0.105103
0.304260 0.215149 0.107483
0.320587 0.218994 0.108917
0.335754 0.222626 0.110382
0.350067 0.225861 0.112549
0.364288 0.228760 0.114105
0.376862 0.231598 0.115906
0.388824 0.234161 0.117737
0.400482 0.236725 0.118774
0.411224 0.238922 0.120331
0.422302 0.240967 0.121460
0.431305 0.243225 0.123901
0.441681 0.244873 0.124573
0.450714 0.246826 0.126404
0.460602 0.248230 0.127594
0.469177 0.249969 0.128815
0.476776 0.251862 0.131104
0.485992 0.253174 0.131866
0.494110 0.254700 0.133606
0.502289 0.256165 0.135010
0.510529 0.257538 0.136688
0.519196 0.258759 0.139313
0.528015 0.259979 0.141296
0.537079 0.261261 0.143311
0.546509 0.262573 0.145752
0.556213 0.263824 0.148285
0.566193 0.265198 0.150543
0.576660 0.266693 0.152893
0.587646 0.268066 0.155792
0.599243 0.269501 0.158875
0.611298 0.270905 0.161835
0.624054 0.272552 0.164795
0.637299 0.274200 0.168152
0.651184 0.275940 0.171478
0.666138 0.277710 0.174774
0.681671 0.279572 0.178925
0.698364 0.281494 0.182953
0.715424 0.283386 0.187317
0.733704 0.285309 0.191772
0.752594 0.287201 0.196686
0.772430 0.289062 0.202179
0.792450 0.290741 0.207825
0.813110 0.292664 0.213623
0.834442 0.294464 0.219910
0.855347 0.296417 0.225006
0.876770 0.298248 0.231079
0.898529 0.299957 0.237518
0.919983 0.301819 0.243347
0.921814 0.298767 0.244171
0.921844 0.299286 0.244568
0.921936 0.300568 0.245575
0.922180 0.303223 0.247742
0.922180 0.303223 0.247742
0.922180 0.303223 0.247742
0.922180 0.303223 0.247742
0.110352 0.192780 0.093048
0.133423 0.196655 0.093445
0.154419 0.200836 0.093445
0.174866 0.203857 0.094147
0.193054 0.205017 0.094177
0.211670 0.206635 0.095367
0.231598 0.210815 0.099182
0.250946 0.214752 0.103455
0.269806 0.220184 0.105225
0.287842 0.224976 0.107483
0.305023 0.229309 0.109467
0.320984 0.233429 0.111389
0.335938 0.237030 0.113220
0.350464 0.240509 0.114655
0.363922 0.243591 0.116730
0.376953 0.246460 0.117889
0.388824 0.249084 0.119720
0.399902 0.251740 0.121674
0.411194 0.254089 0.122742
0.421417 0.256348 0.124237
0.431274 0.258484 0.126068
0.440338 0.260529 0.127350
0.450165 0.262299 0.128204
0.459167 0.264160 0.129517
0.468445 0.265808 0.130341
0.475952 0.267700 0.132568
0.484222 0.269379 0.134033
0.493073 0.270752 0.134827
0.501190 0.272400 0.136414
0.509491 0.274078 0.137634
0.518860 0.275360 0.138306
0.526428 0.277313 0.140961
0.535370 0.278961 0.142456
0.545715 0.280273 0.143646
0.554993 0.282196 0.144775
0.564850 0.283600 0.147308
0.575104 0.285156 0.149414
0.585876 0.286560 0.152069
0.597015 0.288208 0.154114
0.608826 0.289886 0.157257
0.621307 0.291626 0.159973
0.634125 0.293335 0.163025
0.647552 0.295380 0.165436
0.661774 0.297302 0.168579
0.676819 0.299316 0.172180
0.692719 0.301422 0.175537
0.709534 0.303345 0.179321
0.726196 0.305725 0.183228
0.744080 0.307983 0.187286
0.762451 0.310089 0.191467
0.781342 0.312408 0.195740
0.800659 0.314728 0.200409
0.820129 0.317047 0.204468
0.840118 0.319275 0.209320
0.860474 0.321320 0.214935
0.881866 0.323364 0.220703
0.902527 0.325317 0.225861
0.920532 0.326416 0.231934
0.920929 0.324432 0.235596
0.921387 0.322296 0.240143
0.921570 0.322479 0.242004
0.921570 0.322479 0.242004
0.921570 0.322479 0.242004
0.921570 0.322479 0.242004
0.116669 0.208160 0.095947
0.138184 0.212708 0.096405
0.158691 0.216675 0.096680
0.178833 0.220032 0.097168
0.197601 0.222351 0.097260
0.215088 0.222961 0.097382
0.233429 0.225311 0.099365
0.252350 0.229279 0.103516
0.270874 0.233154 0.107574
0.288635 0.237793 0.109863
0.305359 0.242401 0.112152
0.321625 0.246613 0.114319
0.336761 0.250519 0.115448
0.350525 0.253937 0.117523
0.364197 0.257263 0.118835
0.376740 0.260284 0.120850
0.389038 0.263123 0.122253
0.400055 0.265869 0.123749
0.411285 0.268219 0.124573
0.421326 0.270599 0.126190
0.431030 0.272827 0.127960
0.440277 0.274902 0.129547
0.449921 0.276947 0.130188
0.458801 0.278748 0.131744
0.468018 0.280548 0.132141
0.475433 0.282440 0.134277
0.483673 0.284058 0.136200
0.492340 0.285767 0.136383
0.500336 0.287415 0.137848
0.508636 0.289093 0.139038
0.517914 0.290588 0.139709
0.525574 0.292358 0.142395
0.534424 0.294281 0.143951
0.544373 0.295776 0.144592
0.553802 0.297516 0.145996
0.563354 0.299622 0.147888
0.574585 0.300903 0.148651
0.584106 0.303284 0.151855
0.595978 0.305145 0.152130
0.607635 0.307037 0.154633
0.619568 0.309204 0.156616
0.632263 0.310913 0.159485
0.645477 0.313110 0.161713
0.659546 0.315033 0.164764
0.674072 0.317261 0.167999
0.689606 0.319397 0.171021
0.705566 0.321686 0.174347
0.722168 0.324036 0.177856
0.739563 0.326477 0.181519
0.756989 0.328918 0.184753
0.774933 0.331451 0.188202
0.793488 0.333893 0.192230
0.812531 0.336609 0.196014
0.831512 0.339050 0.199982
0.850739 0.341400 0.204651
0.870422 0.343964 0.208740
0.890045 0.346344 0.212921
0.909698 0.348572 0.217834
0.919434 0.349091 0.221252
0.919769 0.347900 0.224487
0.919891 0.347443 0.225555
0.919891 0.347443 0.225555
0.919891 0.347443 0.225555
0.919891 0.347443 0.225555
0.122375 0.223755 0.098877
0.143951 0.228394 0.099121
0.164062 0.232025 0.099854
0.183167 0.236237 0.099670
0.202576 0.238708 0.100494
0.219818 0.239960 0.100403
0.235931 0.240662 0.100525
0.254333 0.243500 0.103699
0.272308 0.247345 0.107605
0.289703 0.250854 0.111755
0.306396 0.255035 0.114075
0.322449 0.259338 0.115692
0.337463 0.263489 0.117767
0.351288 0.267029 0.119507
0.364868 0.270477 0.120972
0.377045 0.273590 0.122711
0.389374 0.276520 0.123871
0.400208 0.279236 0.125702
0.410706 0.281860 0.127106
0.421356 0.284302 0.128082
0.430878 0.286530 0.129669
0.440155 0.288757 0.130859
0.449829 0.290741 0.132111
0.458374 0.292786 0.133392
0.467682 0.294678 0.133881
0.475067 0.296600 0.135986
0.483185 0.298370 0.137360
0.491974 0.300018 0.138123
0.499969 0.301697 0.139160
0.508026 0.303589 0.141052
0.516418 0.305267 0.142639
0.524658 0.307068 0.143616
0.534363 0.308777 0.144165
0.543396 0.310638 0.145844
0.552704 0.312439 0.147552
0.563324 0.314301 0.148163
0.572174 0.316376 0.150543
0.582581 0.318542 0.152557
0.594513 0.320343 0.153412
0.605896 0.322449 0.155365
0.618927 0.324432 0.156067
0.631287 0.326691 0.158173
0.643066 0.329590 0.161438
0.657959 0.331696 0.162445
0.672302 0.334290 0.164581
0.687378 0.336823 0.167114
0.703186 0.339050 0.170502
0.719238 0.341614 0.172882
0.736145 0.344147 0.176117
0.753204 0.346771 0.179535
0.770996 0.349274 0.182861
0.788940 0.352020 0.186371
0.807373 0.354645 0.190063
0.825806 0.357330 0.193573
0.844543 0.360016 0.196838
0.863281 0.362610 0.200684
0.882233 0.365295 0.204681
0.901184 0.367737 0.209076
0.918610 0.370148 0.213287
0.918884 0.369049 0.215973
0.919006 0.368530 0.217041
0.919006 0.368530 0.217041
0.919006 0.368530 0.217041
0.919006 0.368530 0.217041
0.127594 0.238739 0.101685
0.148651 0.243256 0.102051
0.168396 0.247131 0.102570
0.187714 0.250671 0.102966
0.206543 0.254272 0.102814
0.224487 0.255981 0.103302
0.240692 0.256561 0.103394
0.256134 0.257324 0.103760
0.273987 0.260803 0.107452
0.291199 0.264374 0.111603
0.307404 0.267731 0.115082
0.322723 0.271057 0.118011
0.337769 0.275330 0.119904
0.351471 0.278992 0.122070
0.365509 0.282776 0.122955
0.377563 0.285950 0.124725
0.389740 0.289062 0.125702
0.400513 0.291809 0.127533
0.410889 0.294464 0.129059
0.421448 0.296997 0.129974
0.430969 0.299347 0.131653
0.439972 0.301636 0.132507
0.449585 0.303711 0.133270
0.458221 0.305817 0.135101
0.466614 0.307770 0.136353
0.474762 0.309662 0.137665
0.483521 0.311493 0.137970
0.491425 0.313385 0.139618
0.499268 0.315216 0.140594
0.507446 0.316986 0.142578
0.515686 0.318726 0.143585
0.524139 0.320587 0.145325
0.533661 0.322449 0.145721
0.542511 0.324341 0.147095
0.552704 0.326233 0.147797
0.561279 0.328339 0.150391
0.571045 0.330505 0.151764
0.582367 0.332336 0.152588
0.593353 0.334534 0.154724
0.605621 0.336578 0.155273
0.616211 0.339111 0.157990
0.628479 0.341461 0.160126
0.642395 0.343719 0.160950
0.656006 0.346313 0.163208
0.670105 0.349213 0.164764
0.686249 0.351593 0.166046
0.700348 0.354797 0.169647
0.717377 0.357605 0.170166
0.733917 0.360626 0.172607
0.751099 0.363220 0.176086
0.768311 0.365814 0.178894
0.786072 0.368591 0.182251
0.804138 0.371246 0.185699
0.822083 0.374176 0.188599
0.840363 0.376984 0.192139
0.859222 0.379639 0.196259
0.877533 0.382263 0.199982
0.896179 0.384888 0.204102
0.914459 0.387604 0.208069
0.918304 0.387573 0.210449
0.918396 0.387482 0.211212
0.918396 0.387482 0.211212
0.918396 0.387482 0.211212
0.918396 0.387482 0.211212
0.133209 0.253265 0.104431
0.154266 0.257782 0.104645
0.173309 0.261719 0.105377
0.192169 0.265900 0.105103
0.210815 0.268341 0.106049
0.228973 0.271637 0.106018
0.244812 0.272461 0.106232
0.260376 0.273071 0.106354
0.275665 0.274017 0.107178
0.292725 0.277588 0.111084
0.308960 0.280853 0.114838
0.324066 0.284088 0.118378
0.338562 0.286987 0.121277
0.351959 0.290558 0.123566
0.365417 0.294250 0.125061
0.378021 0.297729 0.126221
0.389984 0.301086 0.127808
0.400787 0.303864 0.129242
0.410919 0.306549 0.130981
0.421448 0.309235 0.131470
0.430908 0.311615 0.133118
0.440063 0.313904 0.134827
0.449524 0.316162 0.135376
0.458221 0.318207 0.136963
0.466431 0.320251 0.138000
0.474670 0.322266 0.139954
0.483246 0.324219 0.140076
0.491119 0.326080 0.141205
0.498993 0.327911 0.142731
0.507019 0.329834 0.143799
0.516144 0.331726 0.144226
0.524567 0.333588 0.145966
0.533051 0.335541 0.147064
0.542023 0.337372 0.148865
0.551056 0.339478 0.150238
0.560455 0.341583 0.151672
0.571411 0.343628 0.152283
0.581573 0.345703 0.153900
0.593231 0.347900 0.154602
0.603302 0.350433 0.157440
0.614960 0.352722 0.159058
0.628174 0.355072 0.159943
0.641083 0.357574 0.161621
0.655426 0.360077 0.162659
0.668274 0.363190 0.165802
0.682953 0.365997 0.167755
0.699493 0.368683 0.168976
0.715271 0.371857 0.171326
0.732788 0.374542 0.172089
0.748230 0.378021 0.175812
0.765289 0.381378 0.178528
0.784180 0.384125 0.179291
0.801666 0.387238 0.182159
0.819763 0.390137 0.185852
0.837891 0.392792 0.189545
0.856049 0.395721 0.193054
0.874298 0.398499 0.196686
0.892181 0.401245 0.200226
0.910431 0.403931 0.204071
0.917938 0.404816 0.206665
0.917999 0.404633 0.207367
0.917999 0.404633 0.207367
0.917999 0.404633 0.207367
0.917999 0.404633 0.207367
0.138947 0.266937 0.106995
0.159119 0.271484 0.107513
0.177734 0.276031 0.107635
0.196777 0.279846 0.107666
0.214539 0.282745 0.108429
0.232574 0.285645 0.108734
0.249420 0.287384 0.108917
0.264679 0.288025 0.109039
0.279449 0.288605 0.109131
0.294403 0.290100 0.110596
0.310303 0.293488 0.114502
0.325439 0.296570 0.118073
0.339874 0.299530 0.121063
0.353271 0.302307 0.124115
0.365936 0.305145 0.126740
0.378418 0.308807 0.127899
0.390503 0.312134 0.129089
0.401031 0.315063 0.130798
0.411224 0.317810 0.132721
0.421661 0.320618 0.133240
0.431030 0.323029 0.134888
0.440918 0.325470 0.135834
0.449524 0.327637 0.137115
0.458160 0.329834 0.138611
0.466339 0.331970 0.139740
0.475189 0.334137 0.140625
0.483063 0.336090 0.141418
0.490845 0.337952 0.142914
0.498657 0.339813 0.144318
0.507599 0.341736 0.144897
0.515594 0.343719 0.145660
0.524078 0.345642 0.147522
0.532471 0.347626 0.148529
0.541443 0.349609 0.150299
0.551392 0.351807 0.150665
0.560822 0.353790 0.152130
0.570740 0.355988 0.153687
0.580658 0.358246 0.155182
0.591339 0.360626 0.157043
0.603607 0.362793 0.157684
0.615143 0.365387 0.159241
0.627197 0.367889 0.161133
0.639923 0.370422 0.162872
0.652954 0.373322 0.164917
0.667969 0.376068 0.165619
0.682617 0.378998 0.167450
0.698944 0.381805 0.168091
0.713379 0.384979 0.172089
0.729492 0.388428 0.174255
0.747406 0.391174 0.175446
0.763977 0.394592 0.177979
0.782715 0.397522 0.179352
0.798798 0.401123 0.183655
0.816589 0.404541 0.186584
0.835907 0.407440 0.187836
0.853790 0.410858 0.190704
0.871887 0.413605 0.194214
0.889679 0.416412 0.197601
0.907654 0.419067 0.201263
0.917633 0.420471 0.203888
0.917694 0.420380 0.204468
0.917694 0.420380 0.204468
0.917694 0.420380 0.204468
0.917694 0.420380 0.204468
0.144318 0.280365 0.109497
0.164612 0.284912 0.109985
0.182892 0.289215 0.110382
0.201355 0.292725 0.110718
0.219025 0.296295 0.110870
0.236725 0.298706 0.111511
0.253876 0.301788 0.111481
0.268921 0.302582 0.111633
0.283356 0.303131 0.111725
0.297119 0.303772 0.112091
0.311737 0.305603 0.113983
0.326782 0.308746 0.117676
0.341217 0.311584 0.120636
0.354370 0.314423 0.123627
0.367035 0.317047 0.126465
0.379028 0.319458 0.129242
0.390778 0.322754 0.130859
0.401489 0.325653 0.132538
0.412292 0.328766 0.133667
0.421234 0.331116 0.135712
0.431244 0.333801 0.136505
0.440857 0.336426 0.137238
0.449554 0.338684 0.138702
0.457977 0.340912 0.139984
0.467041 0.343231 0.140533
0.475037 0.345123 0.141663
0.482941 0.347168 0.143433
0.490540 0.349182 0.144257
0.499329 0.351257 0.145050
0.507233 0.353119 0.145905
0.515259 0.355103 0.147522
0.523590 0.357178 0.148834
0.532135 0.359192 0.150085
0.541901 0.361237 0.150604
0.550903 0.363403 0.152130
0.560150 0.365570 0.153320
0.569977 0.367798 0.155304
0.581146 0.370117 0.155579
0.591553 0.372528 0.157135
0.602600 0.374908 0.158691
0.614227 0.377411 0.160767
0.626129 0.380096 0.162140
0.639954 0.382660 0.163086
0.653046 0.385468 0.164429
0.666901 0.388367 0.166718
0.681396 0.391327 0.168854
0.696350 0.394470 0.171295
0.713043 0.397583 0.172424
0.729065 0.400696 0.174896
0.746735 0.403809 0.176208
