morteavenezia.CUBE
#Created by: Adobe Photoshop Export Color Lookup Plugin
TITLE "morteavenezia.psd"
#LUT size
LUT_3D_SIZE 4
#data domain
DOMAIN_MIN 0.0 0.0 0.0
DOMAIN_MAX 1.0 1.0 1.0
#LUT data points
0.071625 0.070251 0.070129
0.439026 0.121796 0.108154
0.626129 0.159393 0.130859
0.886871 0.221283 0.165436
0.184692 0.367157 0.125824
0.445251 0.409485 0.143280
0.638916 0.457092 0.179169
0.912811 0.517609 0.212036
0.274750 0.522308 0.153595
0.484985 0.573059 0.177521
0.657471 0.595032 0.207153
0.908997 0.656006 0.243896
0.378418 0.750214 0.195831
0.546967 0.834991 0.233368
0.721985 0.871552 0.257660
0.910522 0.887756 0.312958
0.158081 0.121063 0.285828
0.453522 0.100708 0.354553
0.638611 0.129730 0.355835
0.897766 0.166412 0.357819
0.209686 0.397034 0.332825
0.484009 0.445618 0.390045
0.679962 0.487427 0.416748
0.943604 0.534851 0.454926
0.318939 0.548157 0.360474
0.518341 0.601410 0.414246
0.695892 0.629761 0.440063
0.939514 0.688995 0.465088
0.424713 0.783356 0.388580
0.583832 0.862244 0.453064
0.756805 0.903503 0.469666
0.940125 0.921082 0.540375
0.241852 0.146149 0.432098
0.471344 0.106140 0.521301
0.656799 0.126923 0.538940
0.918610 0.164032 0.538727
0.289429 0.401276 0.497955
0.509827 0.454590 0.549469
0.702789 0.469757 0.567169
0.948212 0.499298 0.576233
0.331940 0.572296 0.519318
0.545990 0.618103 0.571564
0.731567 0.656311 0.597351
0.961304 0.702759 0.625854
0.450470 0.790863 0.553589
0.620880 0.885895 0.625977
0.786743 0.920746 0.641815
0.962799 0.945740 0.714355
0.312531 0.158722 0.542145
0.507629 0.153625 0.737854
0.688507 0.135437 0.786041
0.932526 0.158569 0.808746
0.425903 0.446472 0.684357
0.577545 0.508911 0.764221
0.743073 0.476471 0.838287
0.959198 0.491089 0.863190
0.429108 0.577362 0.718018
0.613403 0.655243 0.792633
0.773651 0.667694 0.849579
0.973816 0.682526 0.873474
0.456116 0.812836 0.745941
0.609985 0.910675 0.838867
0.832214 0.948090 0.886230
0.996582 0.996582 0.973877
