morteavenezia.CUBE
#Created by: Adobe Photoshop Export Color Lookup Plugin
TITLE "morteavenezia.psd"
#LUT size
LUT_3D_SIZE 8
#data domain
DOMAIN_MIN 0.0 0.0 0.0
DOMAIN_MAX 1.0 1.0 1.0
#LUT data points
0.071625 0.070251 0.070129
0.281616 0.106628 0.091858
0.410553 0.117126 0.105194
0.487885 0.129211 0.113190
0.562836 0.143372 0.121735
0.663971 0.168427 0.136078
0.800568 0.200897 0.154175
0.886871 0.221283 0.165436
0.122375 0.223755 0.098877
0.289703 0.250854 0.111755
0.410706 0.281860 0.127106
0.491974 0.300018 0.138123
0.572174 0.316376 0.150543
0.687378 0.336823 0.167114
0.844543 0.360016 0.196838
0.919006 0.368530 0.217041
0.170776 0.338501 0.120422
0.315735 0.366333 0.123047
0.415314 0.378021 0.134033
0.491638 0.395752 0.151031
0.571014 0.416779 0.162384
0.680969 0.442688 0.177887
0.830444 0.474335 0.195160
0.915955 0.491425 0.205902
0.211212 0.414886 0.134735
0.340393 0.443359 0.137543
0.429108 0.451660 0.145813
0.497711 0.462189 0.160065
0.574432 0.477753 0.179657
0.684906 0.507080 0.193787
0.831848 0.541779 0.210114
0.911804 0.559418 0.219879
0.248413 0.476166 0.146515
0.363678 0.505615 0.151367
0.448944 0.519165 0.162384
0.508453 0.522675 0.169525
0.582062 0.535553 0.185944
0.691132 0.559021 0.209717
0.838593 0.596924 0.224915
0.909637 0.613861 0.233551
0.288757 0.547272 0.158569
0.391785 0.581818 0.165802
0.471191 0.599030 0.180756
0.531097 0.606903 0.189636
0.595459 0.610931 0.196564
0.703430 0.630371 0.219299
0.848907 0.664551 0.242859
0.907959 0.680054 0.250549
0.334045 0.639618 0.176056
0.425171 0.682892 0.187500
0.497589 0.706116 0.204590
0.558197 0.720886 0.215271
0.626740 0.731720 0.223511
0.721222 0.737030 0.230896
0.861267 0.762939 0.259216
0.904968 0.772522 0.270416
0.378418 0.750214 0.195831
0.460480 0.799164 0.210846
0.527100 0.827118 0.230316
0.585724 0.844147 0.242706
0.656342 0.859772 0.252472
0.757843 0.873749 0.260345
0.876953 0.879333 0.267578
0.910522 0.887756 0.312958
0.100281 0.089844 0.153931
0.289673 0.090118 0.182098
0.414246 0.103943 0.194397
0.490540 0.112488 0.197021
0.564850 0.123932 0.199066
0.666260 0.138123 0.203369
0.802948 0.156036 0.209259
0.889069 0.167053 0.212524
0.133179 0.234039 0.178650
0.307587 0.267700 0.210602
0.427673 0.294952 0.225525
0.507050 0.309845 0.240906
0.587189 0.323517 0.257629
0.701538 0.341217 0.281067
0.858795 0.364380 0.311768
0.929840 0.365082 0.321899
0.189117 0.350616 0.202240
0.330902 0.379089 0.226196
0.431061 0.392761 0.242340
0.507629 0.412964 0.254669
0.586578 0.432251 0.264862
0.697052 0.456482 0.278656
0.845490 0.486298 0.294861
0.928131 0.501038 0.305359
0.230255 0.428223 0.209229
0.355469 0.454590 0.235962
0.443970 0.465576 0.244476
0.512360 0.476288 0.257996
0.590454 0.494781 0.272156
0.701538 0.522552 0.284546
0.847961 0.555450 0.299866
0.923370 0.571503 0.307465
0.264221 0.486237 0.204865
0.378632 0.517303 0.236115
0.462982 0.532257 0.247406
0.522064 0.535797 0.253174
0.596222 0.548859 0.268555
0.707397 0.574890 0.286987
0.855255 0.611176 0.299835
0.919861 0.626160 0.306091
0.301971 0.555267 0.190338
0.405609 0.592133 0.227966
0.482666 0.609833 0.241211
0.543488 0.619690 0.248535
0.608490 0.623779 0.253326
0.718750 0.643555 0.273651
0.865021 0.678894 0.292206
0.913574 0.691772 0.296417
0.346924 0.651276 0.177612
0.437469 0.695404 0.206299
0.507660 0.719055 0.222260
0.568604 0.735443 0.229980
0.639069 0.746521 0.238831
0.736450 0.752014 0.246277
0.878174 0.778320 0.274872
0.910370 0.787933 0.311981
0.391388 0.763031 0.199036
0.471893 0.816345 0.224030
0.537598 0.842865 0.245148
0.596436 0.860046 0.257538
0.669708 0.877472 0.266083
0.773621 0.889954 0.275879
0.893707 0.895508 0.283112
0.921356 0.903931 0.396118
0.142700 0.113770 0.255005
0.302124 0.088593 0.301086
0.423187 0.099091 0.317230
0.498657 0.108002 0.318024
0.572845 0.120636 0.319244
0.673431 0.136444 0.320892
0.809723 0.154999 0.322205
0.894440 0.167389 0.323425
0.156067 0.240417 0.286896
0.324860 0.268341 0.318481
0.438629 0.284332 0.326324
0.515686 0.293884 0.333679
0.594879 0.301453 0.342072
0.708649 0.310394 0.354156
0.864624 0.320648 0.369507
0.929871 0.322052 0.378876
0.191223 0.363556 0.297028
0.350494 0.390106 0.337189
0.449524 0.410004 0.350708
0.525787 0.428314 0.360992
0.604614 0.444794 0.372131
0.715118 0.464996 0.389679
0.862579 0.491302 0.411835
0.940399 0.504791 0.423981
0.241821 0.437683 0.309662
0.376282 0.466766 0.351410
0.461243 0.480499 0.360199
0.529388 0.491669 0.373779
0.608276 0.512482 0.383667
0.719910 0.537811 0.396484
0.867706 0.567749 0.410461
0.940033 0.581421 0.420441
0.286163 0.499756 0.322876
0.399780 0.528992 0.360748
0.478821 0.544617 0.371155
0.539246 0.551331 0.377136
0.613708 0.564819 0.392700
0.726593 0.593689 0.406372
0.874237 0.626953 0.420013
0.937958 0.640503 0.426697
0.330811 0.575195 0.334320
0.427307 0.603516 0.369568
0.499939 0.622162 0.381836
0.560577 0.634399 0.389191
0.626404 0.639984 0.394775
0.736389 0.660095 0.416595
0.883331 0.698029 0.431580
0.933685 0.710571 0.437531
0.373505 0.666962 0.339447
0.460907 0.707062 0.380035
0.527893 0.730743 0.395050
0.586121 0.746216 0.403961
0.656403 0.760162 0.411255
0.753937 0.767548 0.416931
0.895264 0.794220 0.443909
0.930786 0.804810 0.458282
0.415314 0.776550 0.344788
0.495789 0.826080 0.390106
0.558502 0.852905 0.408569
0.615448 0.870361 0.419342
0.685669 0.887207 0.426514
0.791077 0.905304 0.433716
0.910675 0.910919 0.438782
0.936249 0.917419 0.510468
0.187134 0.133942 0.340210
0.324158 0.097046 0.398376
0.429199 0.098755 0.406464
0.505127 0.106476 0.415283
0.580750 0.117950 0.417938
0.681763 0.134552 0.417236
0.817841 0.154053 0.417084
0.902863 0.166138 0.417419
0.213867 0.255066 0.363190
0.342926 0.282684 0.403137
0.447662 0.280731 0.422974
0.524384 0.289612 0.430054
0.603210 0.298218 0.435150
0.717926 0.308044 0.442230
0.873413 0.320038 0.452179
0.931274 0.320221 0.459412
0.212036 0.367340 0.390869
0.363220 0.398804 0.420258
0.463470 0.412018 0.433044
0.536987 0.422668 0.438110
0.614838 0.432220 0.444672
0.725922 0.444489 0.452606
0.873077 0.459656 0.461761
0.944824 0.466705 0.466705
0.244202 0.453369 0.396332
0.386200 0.477356 0.429382
0.475922 0.490845 0.446472
0.544952 0.505676 0.456635
0.623779 0.523682 0.465759
0.735779 0.545319 0.480499
0.881897 0.572174 0.499908
0.949249 0.584412 0.509338
0.287567 0.512909 0.401947
0.416077 0.538391 0.443756
0.493591 0.553711 0.458984
0.553345 0.562592 0.464203
0.628967 0.578796 0.477112
0.743408 0.605957 0.488312
0.889893 0.636963 0.502594
0.949219 0.648193 0.509186
0.338684 0.578461 0.415649
0.446625 0.616699 0.459625
0.515839 0.630798 0.473114
0.573517 0.643280 0.479279
0.640625 0.651459 0.484009
0.752075 0.674805 0.502655
0.899475 0.710968 0.516266
0.945892 0.721893 0.521301
0.389557 0.673553 0.435028
0.483063 0.723602 0.478760
0.545380 0.739899 0.491699
0.600647 0.754852 0.498718
0.669312 0.768921 0.504974
0.768585 0.779175 0.509705
0.910095 0.807831 0.535126
0.942261 0.818909 0.548126
0.437439 0.790314 0.455353
0.518372 0.843140 0.496552
0.577545 0.864136 0.511841
0.631744 0.878357 0.521057
0.699829 0.896027 0.526398
0.804047 0.914551 0.532928
0.925476 0.922913 0.537689
0.946777 0.927673 0.591309
0.224152 0.143188 0.404297
0.340057 0.112915 0.458252
0.438904 0.102386 0.474426
0.509705 0.106873 0.480194
0.586304 0.117889 0.488861
0.689667 0.133514 0.491699
0.826874 0.152771 0.490143
0.912048 0.164551 0.489746
0.259186 0.270477 0.429810
0.365265 0.293457 0.464081
0.458252 0.281647 0.491821
0.531189 0.287323 0.500336
0.612396 0.294525 0.509796
0.729279 0.304688 0.514709
0.887482 0.315521 0.522461
0.934174 0.316895 0.529541
0.255768 0.367798 0.454010
0.395752 0.412659 0.478180
0.472778 0.415344 0.501068
0.544800 0.419708 0.511108
0.622345 0.430298 0.513672
0.733765 0.443756 0.517548
0.880310 0.460510 0.522919
0.944855 0.466858 0.527527
0.267059 0.453613 0.466370
0.393005 0.483368 0.496033
0.488403 0.497559 0.508881
0.556488 0.506287 0.516602
0.634369 0.516602 0.522339
0.747040 0.530060 0.529785
0.893097 0.554291 0.545898
0.953705 0.563599 0.552521
0.295624 0.523254 0.471863
0.414734 0.549286 0.501068
0.506195 0.560272 0.520142
0.565369 0.570709 0.528473
0.642853 0.588898 0.539032
0.757843 0.613007 0.551422
0.904053 0.640503 0.570251
0.956299 0.650391 0.577759
0.341034 0.590729 0.477234
0.450012 0.621063 0.513367
0.530396 0.640045 0.536865
0.585632 0.649902 0.544220
0.652802 0.659760 0.548737
0.767090 0.686096 0.564819
0.914917 0.719971 0.577972
0.954865 0.729156 0.583130
0.394775 0.678741 0.493774
0.490692 0.723541 0.535889
0.561432 0.751190 0.558472
0.614014 0.760834 0.565338
0.681183 0.776245 0.570526
0.781433 0.787689 0.575470
0.925232 0.819916 0.597961
0.952454 0.830505 0.612885
0.446442 0.788605 0.518188
0.528900 0.846710 0.559479
0.593597 0.875366 0.580414
0.646057 0.887512 0.588287
0.712677 0.902435 0.594269
0.816223 0.922241 0.599396
0.938873 0.932373 0.605591
0.955719 0.937469 0.660065
0.251465 0.148071 0.446289
0.360870 0.127228 0.518158
0.452454 0.108032 0.544800
0.518616 0.108917 0.548798
0.592468 0.118286 0.555542
0.699585 0.132080 0.566986
0.837830 0.151215 0.567444
0.921356 0.164642 0.566467
0.298767 0.276764 0.490234
0.390747 0.299835 0.526337
0.471283 0.289215 0.557739
0.542114 0.286957 0.571655
0.622131 0.291565 0.582520
0.744415 0.299957 0.596527
0.904388 0.310883 0.605042
0.938904 0.316315 0.611511
0.310272 0.377930 0.507904
0.425537 0.427734 0.543152
0.489136 0.429810 0.561676
0.554291 0.421051 0.581238
0.632172 0.427582 0.590363
0.745819 0.441223 0.594788
0.893280 0.458069 0.599182
0.947113 0.464294 0.602783
0.306763 0.454559 0.531708
0.425507 0.487946 0.556427
0.512390 0.513245 0.572235
0.565918 0.507721 0.588684
0.643799 0.514374 0.596649
0.757233 0.528839 0.599823
0.902191 0.546783 0.604736
0.953705 0.552551 0.608276
0.321594 0.522247 0.538574
0.426758 0.552368 0.569489
0.509186 0.567535 0.585602
0.580841 0.580322 0.594269
0.655914 0.587189 0.601959
0.771179 0.601654 0.609222
0.917389 0.619324 0.618530
0.961060 0.626068 0.623749
0.350525 0.599365 0.544312
0.449432 0.631683 0.574951
0.530029 0.646729 0.592224
0.599792 0.657318 0.609100
0.667053 0.668091 0.616669
0.784607 0.696594 0.631592
0.931885 0.726807 0.647919
0.964386 0.735077 0.655914
0.399475 0.687653 0.551941
0.491608 0.730103 0.589020
0.568146 0.750885 0.614410
0.630737 0.771759 0.632629
0.695709 0.783234 0.639008
0.796844 0.796539 0.644958
0.942688 0.832306 0.665985
0.962921 0.843506 0.685455
0.451447 0.793579 0.571808
0.536713 0.844574 0.614594
0.602234 0.877136 0.639221
0.663239 0.898926 0.656799
0.728424 0.909332 0.663483
0.830719 0.929260 0.670044
0.955383 0.942902 0.677856
0.967041 0.951019 0.746918
0.281525 0.152802 0.492096
0.388336 0.144806 0.593750
0.466431 0.126068 0.624847
0.533875 0.115845 0.642212
0.604523 0.121613 0.647675
0.709473 0.132629 0.657074
0.851318 0.149323 0.672394
0.930756 0.160309 0.672485
0.340668 0.279633 0.558899
0.422943 0.307068 0.605988
0.491730 0.303436 0.640106
0.558258 0.294891 0.666473
0.639435 0.290894 0.684601
0.763397 0.294861 0.704712
0.929932 0.302094 0.732208
0.943695 0.317352 0.730225
0.366974 0.397522 0.579132
0.457581 0.441193 0.621094
0.515472 0.448334 0.641296
0.569489 0.438782 0.666870
0.646332 0.429962 0.688049
0.761841 0.437775 0.702179
0.911011 0.453888 0.711456
0.951599 0.458527 0.716370
0.366455 0.462921 0.596466
0.471008 0.507935 0.629425
0.539520 0.530762 0.655212
0.586426 0.530457 0.670471
0.657684 0.516632 0.695984
0.773010 0.525146 0.709229
0.918762 0.543060 0.713470
0.958496 0.547302 0.717346
0.365997 0.523926 0.615448
0.465027 0.557312 0.648163
0.546631 0.581421 0.663696
0.607208 0.599365 0.680664
0.669434 0.590118 0.702057
0.786133 0.598663 0.713959
0.931122 0.617096 0.718689
0.962830 0.623505 0.722260
0.378235 0.598022 0.624756
0.464722 0.633698 0.663544
0.537354 0.652893 0.684937
0.607147 0.665283 0.697327
0.688995 0.682465 0.708557
0.803802 0.691376 0.721008
0.949310 0.710266 0.730103
0.970947 0.719086 0.737732
0.406311 0.697021 0.631073
0.488403 0.742279 0.669952
0.560120 0.765289 0.692017
0.629669 0.779633 0.708832
0.716034 0.792938 0.730164
0.820343 0.810272 0.743683
0.967438 0.846924 0.761688
0.976807 0.860199 0.785767
0.453400 0.803497 0.639648
0.531982 0.856384 0.683167
0.601685 0.883301 0.710724
0.671661 0.900055 0.734283
0.752045 0.923492 0.757477
0.851807 0.939789 0.767181
0.971100 0.955994 0.778259
0.982361 0.971832 0.864624
0.312531 0.158722 0.542145
0.422729 0.172119 0.694244
0.487549 0.157501 0.729370
0.548096 0.144073 0.754730
0.624603 0.130096 0.780945
0.726929 0.137909 0.788391
0.863708 0.149963 0.800293
0.932526 0.158569 0.808746
0.387970 0.284485 0.656982
0.463501 0.320312 0.717438
0.523773 0.325409 0.756195
0.582733 0.319855 0.788208
0.664368 0.304138 0.825531
0.793579 0.293274 0.857819
0.943054 0.289612 0.893585
0.945740 0.323242 0.865051
0.421844 0.418884 0.682465
0.496979 0.459778 0.728912
0.552704 0.474854 0.752808
0.599731 0.468933 0.781860
0.666809 0.456879 0.811768
0.783600 0.441620 0.843445
0.931213 0.449829 0.862457
0.956573 0.458344 0.861938
0.432617 0.489532 0.686584
0.515076 0.534393 0.743164
0.575470 0.554840 0.770813
0.623322 0.562286 0.784882
0.680969 0.548828 0.814911
0.793091 0.529663 0.848907
0.938324 0.538696 0.865845
0.963593 0.545776 0.865875
0.429718 0.538239 0.705109
0.520477 0.582672 0.749542
0.588135 0.610413 0.780701
0.643005 0.625793 0.801208
0.699005 0.623413 0.820374
0.806030 0.602081 0.856628
0.950775 0.612091 0.873138
0.969604 0.620758 0.869965
0.428558 0.600861 0.724854
0.513000 0.640472 0.771088
0.585632 0.666626 0.795502
0.656372 0.691406 0.810944
0.726471 0.710114 0.833038
0.823608 0.692993 0.866638
0.968231 0.705200 0.881287
0.976257 0.719757 0.876678
0.433014 0.694763 0.740021
0.505646 0.743225 0.793396
0.571259 0.770508 0.823212
0.638245 0.788788 0.843323
0.729584 0.804504 0.856720
0.848145 0.826416 0.875519
0.984741 0.837769 0.890625
0.986511 0.860077 0.899933
0.456116 0.812836 0.745941
0.524780 0.870941 0.800110
0.588440 0.902771 0.831024
0.656494 0.922821 0.851959
0.747955 0.938080 0.870483
0.879974 0.953186 0.897461
0.988922 0.972809 0.914948
0.996582 0.996582 0.973877
